X: 46
T:Battle of the Somme
M:3/4
L:1/4
Q:80
R:Waltz
K:D
f>af|"D"d3|d3|"G"e>dG|B3|"D"A3|"G"B>GB|"D"A3|f3|f>af|"A"e3-|e3|
"D"f>af|d3|d3|"G"e>dG|B3|"D"A3|"G"B>GB|"D"A3|f3|"A"e>fe|"D"d3-|d3::
d>cd|"A"e3|A3|e>fg|"D"f<af|d3|f>ef|"G"g3|B2d|"D"fa>f|"A"e3-|e3|
"D"f>af|d3|d3|"G"e>dG|B3|"D"A3|"G"B>GB|"D"A3|f3|"A"e>fe|"D"d3-|d3:|
